packages/core/src/svgs/tokens/mono/COSMOSHUB.svg

<svg width="24" height="24" viewBox="0 0 24 24" fill="none" xmlns="http://www.w3.org/2000/svg">
<path fill-rule="evenodd" clip-rule="evenodd" d="M12.1454 2.53209C12.0546 2.44859 12.0078 2.44701 12 2.44701C11.9921 2.44701 11.9453 2.44859 11.8545 2.53209C11.7614 2.6178 11.6501 2.76568 11.5301 2.99387C11.2906 3.44929 11.0616 4.13769 10.864 5.02595C10.642 6.02484 10.4664 7.24576 10.3557 8.61247C10.8905 8.87124 11.4404 9.15255 11.9998 9.45467C12.5593 9.15249 13.1093 8.87115 13.6442 8.61233C13.5334 7.24569 13.358 6.02481 13.1358 5.02595C12.9384 4.13769 12.7092 3.44929 12.4698 2.99387C12.3498 2.76568 12.2385 2.6178 12.1454 2.53209ZM11.5318 9.71093C11.1209 9.49267 10.7162 9.2862 10.32 9.0922C10.2898 9.53213 10.2665 9.98573 10.2502 10.4504C10.4598 10.3249 10.6725 10.1999 10.888 10.0755C11.1036 9.9512 11.3182 9.8296 11.5318 9.71093ZM9.92425 8.40704C10.2452 4.65928 11.0536 2 12 2C12.9464 2 13.7548 4.65921 14.0757 8.40693C17.4837 6.81091 20.1922 6.18093 20.6654 7.00005C21.1386 7.81919 19.2384 9.8484 16.1513 12C19.2384 14.1516 21.1386 16.1808 20.6654 17C20.1922 17.8191 17.4837 17.1891 14.0757 15.5931C13.7548 19.3408 12.9464 22 12 22C11.0536 22 10.2452 19.3407 9.92425 15.5929C6.51607 17.1891 3.80742 17.8191 3.33419 17C2.86097 16.1808 4.76118 14.1516 7.84833 12C4.76118 9.8484 2.86097 7.8192 3.33419 7.00005C3.80742 6.18091 6.51607 6.81095 9.92425 8.40704ZM8.24223 11.7292C7.11315 10.95 6.14281 10.1875 5.38821 9.49587C4.71719 8.88072 4.23523 8.33816 3.96025 7.90321C3.8225 7.68531 3.75005 7.51501 3.72235 7.39161C3.69538 7.27144 3.71742 7.23029 3.72126 7.22367C3.7251 7.21699 3.74985 7.17725 3.86761 7.14047C3.9885 7.10269 4.17238 7.08027 4.43015 7.09053C4.94462 7.11103 5.65581 7.25691 6.52433 7.53009C7.50102 7.83733 8.64679 8.29589 9.88651 8.88343C9.84331 9.4756 9.81225 10.0921 9.79425 10.7272C9.2527 11.0604 8.73393 11.3957 8.24223 11.7292ZM8.24223 12.2708C7.11315 13.05 6.14281 13.8125 5.38821 14.5041C4.71719 15.1193 4.23523 15.6619 3.96025 16.0968C3.8225 16.3147 3.75005 16.4849 3.72235 16.6084C3.69538 16.7285 3.71742 16.7697 3.72126 16.7763C3.72509 16.7829 3.74979 16.8227 3.86761 16.8596C3.9885 16.8973 4.17238 16.9197 4.43015 16.9095C4.94462 16.8889 5.65581 16.7431 6.52433 16.4699C7.50102 16.1627 8.64679 15.7041 9.88651 15.1165C9.84331 14.5244 9.81225 13.9079 9.79425 13.2728C9.2527 12.9396 8.73393 12.6043 8.24223 12.2708ZM9.78238 12.7396C9.38771 12.4931 9.00638 12.246 8.64002 12C9.00638 11.754 9.38771 11.5069 9.78238 11.2604C9.77838 11.5047 9.77638 11.7512 9.77638 12C9.77638 12.2488 9.77838 12.4953 9.78238 12.7396ZM10.2349 13.0183C10.2273 12.6837 10.2234 12.344 10.2234 12C10.2234 11.656 10.2273 11.3163 10.2349 10.9817C10.521 10.8079 10.8133 10.6347 11.1114 10.4627C11.4096 10.2907 11.706 10.1241 11.9998 9.96333C12.2936 10.1241 12.59 10.2907 12.8882 10.4627C13.1864 10.6348 13.4789 10.808 13.765 10.9819C13.7726 11.3164 13.7765 11.656 13.7765 12C13.7765 12.344 13.7726 12.6836 13.765 13.0181C13.4789 13.192 13.1864 13.3652 12.8882 13.5373C12.59 13.7093 12.2936 13.8759 11.9998 14.0367C11.706 13.8759 11.4096 13.7093 11.1114 13.5373C10.8133 13.3653 10.521 13.1921 10.2349 13.0183ZM10.2502 13.5496C10.2665 14.0143 10.2898 14.4679 10.32 14.9079C10.7162 14.7137 11.1209 14.5073 11.5318 14.2891C11.3182 14.1704 11.1036 14.0488 10.888 13.9245C10.6725 13.8001 10.4598 13.6751 10.2502 13.5496ZM11.9998 14.5453C11.4404 14.8475 10.8905 15.1288 10.3557 15.3875C10.4664 16.7543 10.642 17.9752 10.864 18.974C11.0616 19.8623 11.2906 20.5507 11.5301 21.0061C11.6501 21.2343 11.7614 21.3823 11.8545 21.4679C11.9453 21.5515 11.9921 21.5529 12 21.5529C12.0078 21.5529 12.0546 21.5515 12.1454 21.4679C12.2385 21.3823 12.3498 21.2343 12.4698 21.0061C12.7092 20.5507 12.9384 19.8623 13.1358 18.974C13.358 17.9752 13.5334 16.7543 13.6442 15.3876C13.1093 15.1288 12.5593 14.8475 11.9998 14.5453ZM14.1134 15.1167C15.353 15.7041 16.4986 16.1627 17.4753 16.4699C18.3438 16.7431 19.055 16.8889 19.5694 16.9095C19.8272 16.9197 20.0112 16.8973 20.132 16.8596C20.2498 16.8227 20.2745 16.7829 20.2784 16.7763C20.2822 16.7697 20.3042 16.7287 20.2773 16.6084C20.2496 16.4849 20.1772 16.3147 20.0393 16.0968C19.7644 15.6619 19.2825 15.1193 18.6114 14.5041C17.8568 13.8125 16.8865 13.05 15.7574 12.2708C15.2658 12.6043 14.747 12.9395 14.2057 13.2727C14.1877 13.9079 14.1565 14.5245 14.1134 15.1167ZM15.7574 11.7292C16.8865 10.95 17.8568 10.1875 18.6114 9.49587C19.2825 8.88072 19.7644 8.33816 20.0393 7.90321C20.1772 7.68531 20.2496 7.51501 20.2773 7.39161C20.3042 7.27139 20.2822 7.23027 20.2784 7.22367C20.2745 7.21701 20.2498 7.17727 20.132 7.14047C20.0112 7.10269 19.8272 7.08027 19.5694 7.09053C19.055 7.11103 18.3438 7.25691 17.4753 7.53009C16.4986 7.83731 15.353 8.29583 14.1134 8.88329C14.1565 9.47547 14.1877 10.0921 14.2057 10.7273C14.747 11.0605 15.2658 11.3957 15.7574 11.7292ZM14.2176 11.2607C14.6121 11.5071 14.9933 11.754 15.3596 12C14.9933 12.246 14.6121 12.4929 14.2176 12.7393C14.2214 12.4952 14.2236 12.2487 14.2236 12C14.2236 11.7513 14.2214 11.5048 14.2176 11.2607ZM13.7497 10.4507C13.7334 9.98573 13.71 9.53213 13.68 9.09207C13.2836 9.28611 12.8788 9.49267 12.4678 9.71093C12.6814 9.8296 12.8961 9.9512 13.1116 10.0755C13.3272 10.2 13.54 10.3251 13.7497 10.4507ZM13.68 14.908C13.2836 14.7139 12.8788 14.5073 12.4678 14.2891C12.6814 14.1704 12.8961 14.0488 13.1116 13.9245C13.3272 13.8 13.54 13.6749 13.7497 13.5493C13.7334 14.0143 13.71 14.4679 13.68 14.908Z" fill="white"/>
<path fill-rule="evenodd" clip-rule="evenodd" d="M5.60895 9.19971C5.99734 9.19971 6.31216 9.51469 6.31216 9.90323C6.31216 10.2918 5.99734 10.6068 5.60895 10.6068C5.22059 10.6068 4.90576 10.2918 4.90576 9.90323C4.90576 9.51469 5.22059 9.19971 5.60895 9.19971Z" fill="white"/>
<path fill-rule="evenodd" clip-rule="evenodd" d="M16.7855 6.79028C17.1742 6.79028 17.4891 7.10527 17.4891 7.49383C17.4891 7.88239 17.1742 8.19738 16.7855 8.19738C16.397 8.19738 16.082 7.88239 16.082 7.49383C16.082 7.10527 16.397 6.79028 16.7855 6.79028Z" fill="white"/>
<path fill-rule="evenodd" clip-rule="evenodd" d="M10.583 17.8328C10.9715 17.8328 11.2866 18.1476 11.2866 18.536C11.2866 18.9244 10.9715 19.2392 10.583 19.2392C10.1945 19.2392 9.87939 18.9244 9.87939 18.536C9.87939 18.1476 10.1945 17.8328 10.583 17.8328Z" fill="white"/>
<path fill-rule="evenodd" clip-rule="evenodd" d="M11.9612 10.8037C12.6191 10.8037 13.1523 11.337 13.1523 11.9949C13.1523 12.6528 12.6191 13.186 11.9612 13.186C11.3034 13.186 10.77 12.6528 10.77 11.9949C10.77 11.337 11.3034 10.8037 11.9612 10.8037Z" fill="white"/>
</svg>

<svg xmlns="http://www.w3.org/2000/svg" width="24" height="24" fill="none" viewBox="0 0 24 24">
    <path fill="#fff" fill-rule="evenodd" d="M12.145 2.532c-.09-.083-.137-.085-.145-.085s-.055.002-.146.085a1.7 1.7 0 0 0-.324.462c-.24.455-.468 1.144-.666 2.032-.222.999-.398 2.22-.508 3.586q.803.39 1.644.843.841-.454 1.644-.843c-.11-1.366-.286-2.587-.508-3.586-.198-.888-.427-1.577-.666-2.032a1.7 1.7 0 0 0-.325-.462m-.613 7.179a41 41 0 0 0-1.212-.619q-.045.661-.07 1.358a46 46 0 0 1 1.282-.74M9.924 8.407C10.245 4.659 11.054 2 12 2s1.755 2.66 2.076 6.407C17.484 6.81 20.192 6.18 20.666 7c.473.82-1.428 2.848-4.515 5 3.087 2.152 4.988 4.18 4.514 5-.473.82-3.181.19-6.59-1.407C13.756 19.341 12.947 22 12 22s-1.755-2.66-2.076-6.407C6.516 17.189 3.807 17.819 3.334 17c-.473-.82 1.427-2.848 4.514-5-3.087-2.152-4.987-4.18-4.514-5s3.182-.189 6.59 1.407m-1.682 3.322c-1.129-.779-2.1-1.541-2.854-2.233-.67-.615-1.153-1.158-1.428-1.593a1.7 1.7 0 0 1-.238-.511c-.027-.12-.005-.162 0-.168.003-.007.028-.047.146-.084.12-.037.304-.06.562-.05.515.021 1.226.167 2.094.44.977.307 2.123.766 3.363 1.353a42 42 0 0 0-.093 1.844q-.813.501-1.552 1.002m0 .542c-1.129.779-2.1 1.541-2.854 2.233-.67.615-1.153 1.158-1.428 1.593-.138.218-.21.388-.238.511-.027.12-.005.162 0 .168.003.007.028.047.146.084.12.037.304.06.562.05.515-.021 1.226-.167 2.094-.44.977-.307 2.123-.766 3.363-1.353a42 42 0 0 1-.093-1.844 42 42 0 0 1-1.552-1.002m1.54.469A41 41 0 0 1 8.64 12q.55-.37 1.142-.74a45 45 0 0 0 0 1.48m.453.278a45 45 0 0 1 0-2.036A45 45 0 0 1 12 9.963a45 45 0 0 1 1.765 1.019 45 45 0 0 1 0 2.036A45 45 0 0 1 12 14.037a46 46 0 0 1-1.765-1.019m.015.532q.025.697.07 1.358.594-.29 1.212-.619a47 47 0 0 1-1.282-.74m1.75.995q-.841.455-1.644.842c.11 1.367.286 2.588.508 3.587.198.888.427 1.577.666 2.032.12.228.231.376.325.462.09.084.137.085.145.085s.055-.002.145-.085c.094-.086.205-.234.325-.462.24-.455.468-1.144.666-2.032.222-.999.397-2.22.508-3.586A42 42 0 0 1 12 14.545m2.113.572c1.24.587 2.386 1.046 3.362 1.353.869.273 1.58.419 2.094.44.258.01.442-.013.563-.05.118-.037.142-.077.146-.084.004-.006.026-.047 0-.168a1.7 1.7 0 0 0-.239-.511c-.275-.435-.757-.978-1.428-1.593-.754-.691-1.724-1.454-2.854-2.233q-.738.5-1.551 1.002a42 42 0 0 1-.093 1.844m1.644-3.388c1.13-.779 2.1-1.541 2.854-2.233.671-.615 1.153-1.158 1.428-1.593.138-.218.21-.388.238-.511.027-.12.005-.162.001-.168-.003-.007-.028-.047-.146-.084a1.7 1.7 0 0 0-.563-.05c-.514.021-1.225.167-2.094.44-.976.307-2.122.766-3.362 1.353.043.592.075 1.21.093 1.844q.813.501 1.551 1.002m-1.54-.468q.592.37 1.143.739-.55.37-1.142.74a48 48 0 0 0 0-1.48m-.467-.81q-.025-.698-.07-1.359-.595.29-1.212.619a46 46 0 0 1 1.282.74m-.07 4.457q-.595-.29-1.212-.619a46 46 0 0 0 1.282-.74q-.025.698-.07 1.359" clip-rule="evenodd"/>
    <path fill="#fff" fill-rule="evenodd" d="M5.609 9.2a.703.703 0 1 1 0 1.406.703.703 0 0 1 0-1.406m11.177-2.41a.704.704 0 1 1 0 1.407.704.704 0 0 1 0-1.407m-6.203 11.043a.703.703 0 1 1 0 1.407.703.703 0 0 1 0-1.407m1.378-7.029a1.191 1.191 0 1 1 0 2.382 1.191 1.191 0 0 1 0-2.382" clip-rule="evenodd"/>
</svg>
